X: 18
M: 4/4
L: 1/8
K: D
"D"A,DF2 "G"B,DG2 | "A7"CEA2 "D7"dcBA | "G"GABG "F#/D"AFED | "Em"EFED "A7"CEA2 |
"D"A,DF2 "G"B,DG2 | "A7"CEA2 "Bm"dcBA | "G"GABG "F#/D"AFED |1 "E/A7"EGFE "D"D3F :|2 "E/A7"EGFE "D"D3"A7"A ||
"D"fdA2 "C#/A7"ecA2 | "Bm"dedB "A/D7"cBA2 | "G"BAG2 "F#/D"AGF2 | "Em"GAGF "A7"EAce |
"D"fdA2 "C#/A7"ecA2 | "Bm"dedB "A/D7"cBA2 | "G"BAG2 "F#/D"AGF2 | "EA7"EGFE "D"DAde |
"D"fdA2 "C#/A7"ecA2 | "Bm"dedB "A/D7"cBA2 | "G"BAG2 "F#/D"AGF2 | "Em"GAGF "A7"EGFE |
"D"A,DF2 "G"B,DG2 | "A7"CEA2 "A7"dcBA | "G"GABG "F#/D"AFED | "E/A7"EGFE "D"D2D2 |]
My twin daughters, Morvern and Lorna, have often complained that I have never written a tune for them.
twosome'. Hopefully this tune will stop them complaining!


